actions/22/dontknow.svg

<svg xmlns="http://www.w3.org/2000/svg" viewBox="0 0 22 22">
  <defs id="defs3051">
    <style type="text/css" id="current-color-scheme">
      .ColorScheme-Text {
        color:#808080;
      }
      </style>
  </defs>
   <g transform="translate(-421.71429-525.79074)">
 <path 
    style="fill:currentColor;fill-opacity:1;stroke:none" 
	d="m432.68304 528.79074c-1.75093 0-3.40688.4216-4.96875 1.26367l.77734 1.78711c.78092-.38352 1.48271-.65748 2.10743-.82422.63297-.16673 1.27792-.25 1.93554-.25.98644 0 1.74342.22025 2.26953.66211.5261.44187.78907 1.075.78907 1.90039 0 .44187-.0568.83057-.17188 1.16407-.11508.33348-.31231.66651-.5918 1-.27948.33349-.86767.88335-1.76367 1.65039-1.10008 1.00333-2.2511 2.78548-2.35156 4.64648h2l-.006-.0312c0-.75868.13147-1.36761.39453-1.82617.27128-.46689.81313-1.055 1.62695-1.76367.99467-.84207 1.65753-1.47518 1.98633-1.90039.33704-.4252.58756-.87438.75196-1.34961.1645-.47523.24609-1.02172.24609-1.63868 0-1.41734-.44773-2.51904-1.34375-3.30273-.89601-.79204-2.12564-1.1875-3.6875-1.1875zm-1.96875 14v2h2v-2h-2"
    class="ColorScheme-Text"
    />  
<path d="m436.70452 538.79074l-.99023.9902 2.00976 2.0098-2.00976 2.0098.99023.9902 2.00977-2.0098 2.00976 2.0098.99024-.9902-2.00977-2.0098 2.00977-2.0098-.99024-.9902-2.00976 2.0098-2.00977-2.0098" style="fill:#da4453"/>
 </g>
</svg>

<svg xmlns="http://www.w3.org/2000/svg" version="1.1" viewBox="0 0 22 22">
 <defs>
  <style id="current-color-scheme" type="text/css">
   .ColorScheme-Text { color:#808080; }
  </style>
 </defs>
 <g transform="translate(-421.71,-525.79)">
  <path class="ColorScheme-Text" d="M 432.68,528.79 C 430.93,528.79 429.28,529.21 427.71,530.05 L 428.49,531.84 C 429.27,531.46 429.97,531.18 430.6,531.02 431.23,530.85 431.88,530.77 432.53,530.77 433.52,530.77 434.28,530.99 434.8,531.43 435.33,531.87 435.59,532.5 435.59,533.33 435.59,533.77 435.54,534.16 435.42,534.49 435.31,534.83 435.11,535.16 434.83,535.49 434.55,535.83 433.96,536.38 433.07,537.14 431.97,538.15 430.81,539.93 430.71,541.79 H 432.71 V 541.76 C 432.71,541 432.84,540.39 433.1,539.93 433.37,539.47 433.92,538.88 434.73,538.17 435.72,537.33 436.39,536.69 436.72,536.27 437.05,535.84 437.3,535.39 437.47,534.92 437.63,534.44 437.71,533.9 437.71,533.28 437.71,531.86 437.27,530.76 436.37,529.98 435.47,529.19 434.24,528.79 432.68,528.79 Z M 430.71,542.79 V 544.79 H 432.71 V 542.79 H 430.71" style="color:#808080;fill:currentColor"/>
  <path d="M 436.7,538.79 435.71,539.78 437.72,541.79 435.71,543.8 436.7,544.79 438.71,542.78 440.72,544.79 441.71,543.8 439.7,541.79 441.71,539.78 440.72,538.79 438.71,540.8 436.7,538.79" style="fill:#da4453"/>
 </g>
</svg>
